icons/restrained.svg

<svg id="icon" style="touch-action: none;" clip-rule="evenodd" fill-rule="evenodd" stroke-linejoin="round" stroke-miterlimit="2" viewBox="0 0 500 500" xmlns="http://www.w3.org/2000/svg" xmlns:xlink="http://www.w3.org/1999/xlink"><clipPath id="a"><path clip-rule="evenodd" d="m0 0h19v22h-19z"/></clipPath><g clip-path="url(#a)" fill="#edbfd1" transform="matrix(22.7273 0 0 22.7273 34.09065 -.0003)"><text font-family="'RobotoCondensed-Bold', 'Roboto Condensed'" font-size="8" font-stretch="condensed" font-weight="700" transform="translate(7 6.84)">R</text><g fill-rule="nonzero"><path d="m18.75 10.61c-1.5 1.41-2.84 3.08-4.56 4.13-1.05.64-2.68.34-4 .46-.674-3.108.805-6.31 3.61-7.81.32-.15 1-.18 1.1 0 .253.394.33.877.21 1.33-.465.774-1.005 1.5-1.61 2.17 2.2-.87 2.5-1.69 3-3.76.46-1.82 0-4.66.71-4.95.83 0 1.69-.33 1.57 1.26-.19 2.74-.03 4.41-.03 7.17z"/><path d="m.07 10.61c1.5 1.41 2.84 3.08 4.56 4.13 1.05.64 2.68.34 4 .46.671-3.113-.818-6.316-3.63-7.81-.32-.15-1-.18-1.1 0-.21.35.94 1.41 1.1 1.77.28.62 0 1.12.32 1.73-3-1.23-2.5-1.69-3-3.76-.46-1.82 0-4.66-.71-4.95-.86.02-1.72-.34-1.61 1.25.23 2.75.07 4.42.07 7.18z"/><path d="m2.51 21.16c-.71-1.14-.56-2 .93-2 3.733-.047 7.463-.047 11.19 0 1.49 0 1.64.83.93 2z"/><path d="m9.22 18.12c-1.92 0-3.85.06-5.76 0-.46 0-.89-.54-1.34-.82.45-.37.89-1 1.34-1.06 3.76-.08 7.52-.07 11.28 0 .41 0 .81.61 1.21.94-.41.32-.8.91-1.22.93-1.83.07-3.67.01-5.51.01z"/></g></g></svg>

<svg id="icon" style="touch-action: none;" width="100%" height="100%" viewBox="0 0 500 500" version="1.1" xmlns="http://www.w3.org/2000/svg" xmlns:xlink="http://www.w3.org/1999/xlink" xml:space="preserve" xmlns:serif="http://www.serif.com/" fill-rule="evenodd" clip-rule="evenodd" stroke-linejoin="round" stroke-miterlimit="2"><g><g transform="matrix(22.7273,0,0,22.7273,250,250) matrix(1,0,0,1,-9.5,-11)"><clipPath id="_clip1"><rect x="0" y="0" width="19" height="22"/></clipPath><g clip-path="url(#_clip1)"><g id="Layer_2"><g id="Layer_1-2"><g><text x="0" y="0" font-family="'RobotoCondensed-Bold', 'Roboto Condensed'" font-weight="700" font-stretch="condensed" font-size="8px" fill="rgb(237,191,209)" transform="matrix(1,0,0,1,7,6.84)">R</text></g><path d="M18.75,10.61C17.25,12.02 15.91,13.69 14.19,14.74C13.14,15.38 11.51,15.08 10.19,15.2C9.516,12.092 10.995,8.89 13.8,7.39C14.12,7.24 14.8,7.21 14.9,7.39C15.153,7.784 15.23,8.267 15.11,8.72C14.645,9.494 14.105,10.22 13.5,10.89C15.7,10.02 16,9.2 16.5,7.13C16.96,5.31 16.5,2.47 17.21,2.18C18.04,2.18 18.9,1.85 18.78,3.44C18.59,6.18 18.75,7.85 18.75,10.61Z" fill="rgb(237,191,209)" fill-rule="nonzero"/><path d="M0.07,10.61C1.57,12.02 2.91,13.69 4.63,14.74C5.68,15.38 7.31,15.08 8.63,15.2C9.301,12.087 7.812,8.884 5,7.39C4.68,7.24 4,7.21 3.9,7.39C3.69,7.74 4.84,8.8 5,9.16C5.28,9.78 5,10.28 5.32,10.89C2.32,9.66 2.82,9.2 2.32,7.13C1.86,5.31 2.32,2.47 1.61,2.18C0.75,2.2 -0.11,1.84 0,3.43C0.23,6.18 0.07,7.85 0.07,10.61Z" fill="rgb(237,191,209)" fill-rule="nonzero"/><path d="M2.51,21.16C1.8,20.02 1.95,19.16 3.44,19.16C7.173,19.113 10.903,19.113 14.63,19.16C16.12,19.16 16.27,19.99 15.56,21.16L2.51,21.16Z" fill="rgb(237,191,209)" fill-rule="nonzero"/><path d="M9.22,18.12C7.3,18.12 5.37,18.18 3.46,18.12C3,18.12 2.57,17.58 2.12,17.3C2.57,16.93 3.01,16.3 3.46,16.24C7.22,16.16 10.98,16.17 14.74,16.24C15.15,16.24 15.55,16.85 15.95,17.18C15.54,17.5 15.15,18.09 14.73,18.11C12.9,18.18 11.06,18.12 9.22,18.12Z" fill="rgb(237,191,209)" fill-rule="nonzero"/></g></g></g></g></g></svg>
